src/assets/icons/skills/react-js.svg

<?xml version="1.0"?><svg xmlns="http://www.w3.org/2000/svg"  viewBox="0 0 30 30" width="50px" height="50px">    <path d="M 10.679688 4.1816406 C 10.068687 4.1816406 9.502 4.3184219 9 4.6074219 C 7.4311297 5.5132122 6.8339651 7.7205462 7.1503906 10.46875 C 4.6127006 11.568833 3 13.188667 3 15 C 3 16.811333 4.6127006 18.431167 7.1503906 19.53125 C 6.8341285 22.279346 7.4311297 24.486788 9 25.392578 C 9.501 25.681578 10.067687 25.818359 10.679688 25.818359 C 11.982314 25.818359 13.48785 25.164589 15 24.042969 C 16.512282 25.164589 18.01964 25.818359 19.322266 25.818359 C 19.933266 25.818359 20.499953 25.681578 21.001953 25.392578 C 22.570814 24.486793 23.167976 22.279432 22.851562 19.53125 C 25.388297 18.431178 27 16.81094 27 15 C 27 13.188667 25.387299 11.568833 22.849609 10.46875 C 23.165872 7.7206538 22.56887 5.5132122 21 4.6074219 C 20.499 4.3174219 19.932312 4.1816406 19.320312 4.1816406 C 18.017686 4.1816406 16.51215 4.8354109 15 5.9570312 C 13.487763 4.8354109 11.981863 4.1816406 10.679688 4.1816406 z M 10.679688 5.9316406 C 11.461321 5.9316406 12.49496 6.3472486 13.617188 7.1171875 C 12.95737 7.7398717 12.311153 8.4479321 11.689453 9.2363281 C 10.681079 9.3809166 9.7303472 9.5916908 8.8496094 9.8554688 C 8.8448793 9.7943902 8.8336776 9.7303008 8.8300781 9.6699219 C 8.7230781 7.8899219 9.114 6.5630469 9.875 6.1230469 C 10.1 5.9930469 10.362688 5.9316406 10.679688 5.9316406 z M 19.320312 5.9316406 C 19.636312 5.9316406 19.9 5.9930469 20.125 6.1230469 C 20.886 6.5620469 21.276922 7.8899219 21.169922 9.6699219 C 21.166295 9.7303008 21.155145 9.7943902 21.150391 9.8554688 C 20.2691 9.5915252 19.317669 9.3809265 18.308594 9.2363281 C 17.686902 8.4480417 17.042616 7.7397993 16.382812 7.1171875 C 17.504962 6.3473772 18.539083 5.9316406 19.320312 5.9316406 z M 15 8.2285156 C 15.27108 8.4752506 15.540266 8.7360345 15.8125 9.0214844 C 15.542718 9.012422 15.274373 9 15 9 C 14.726286 9 14.458598 9.0124652 14.189453 9.0214844 C 14.461446 8.7363308 14.729174 8.4750167 15 8.2285156 z M 15 10.75 C 15.828688 10.75 16.614128 10.796321 17.359375 10.876953 C 17.813861 11.494697 18.261774 12.147811 18.681641 12.875 C 19.084074 13.572033 19.439938 14.285488 19.753906 15 C 19.439896 15.714942 19.084316 16.429502 18.681641 17.126953 C 18.263078 17.852044 17.816279 18.500949 17.363281 19.117188 C 16.591711 19.201607 15.800219 19.25 15 19.25 C 14.171312 19.25 13.385872 19.203679 12.640625 19.123047 C 12.186139 18.505303 11.738226 17.854142 11.318359 17.126953 C 10.915684 16.429502 10.560194 15.714942 10.246094 15 C 10.559972 14.285488 10.915926 13.572033 11.318359 12.875 C 11.737083 12.149909 12.183612 11.499051 12.636719 10.882812 C 13.408289 10.798393 14.199781 10.75 15 10.75 z M 19.746094 11.291016 C 20.142841 11.386804 20.524253 11.490209 20.882812 11.605469 C 20.801579 11.97252 20.702235 12.346608 20.589844 12.724609 C 20.461164 12.483141 20.336375 12.240903 20.197266 12 C 20.054139 11.752196 19.895244 11.529558 19.746094 11.291016 z M 10.251953 11.292969 C 10.103305 11.530776 9.9454023 11.752991 9.8027344 12 C 9.6636666 12.240944 9.5387971 12.483106 9.4101562 12.724609 C 9.29751 12.345829 9.1965499 11.971295 9.1152344 11.603516 C 9.4803698 11.48815 9.86083 11.385986 10.251953 11.292969 z M 7.46875 12.246094 C 7.6794464 13.135714 7.9717297 14.057918 8.3476562 14.998047 C 7.9725263 15.935943 7.6814729 16.856453 7.4707031 17.744141 C 5.7292327 16.903203 4.75 15.856373 4.75 15 C 4.75 14.121 5.701875 13.119266 7.296875 12.322266 C 7.3513169 12.295031 7.4131225 12.272692 7.46875 12.246094 z M 22.529297 12.255859 C 24.270767 13.096797 25.25 14.143627 25.25 15 C 25.25 15.879 24.298125 16.880734 22.703125 17.677734 C 22.648683 17.704969 22.586877 17.727308 22.53125 17.753906 C 22.32043 16.863764 22.030541 15.940699 21.654297 15 C 22.028977 14.062913 22.318703 13.142804 22.529297 12.255859 z M 15 13 C 13.895 13 13 13.895 13 15 C 13 16.105 13.895 17 15 17 C 16.105 17 17 16.105 17 15 C 17 13.895 16.105 13 15 13 z M 9.4101562 17.275391 C 9.5388794 17.516948 9.6655262 17.759008 9.8046875 18 C 9.9476585 18.247625 10.104915 18.470608 10.253906 18.708984 C 9.857159 18.613196 9.4757466 18.509791 9.1171875 18.394531 C 9.1984813 18.02725 9.2976676 17.653633 9.4101562 17.275391 z M 20.589844 17.277344 C 20.702364 17.655759 20.803517 18.02905 20.884766 18.396484 C 20.51963 18.51185 20.13917 18.614014 19.748047 18.707031 C 19.896695 18.469224 20.054598 18.247009 20.197266 18 C 20.336044 17.759557 20.461449 17.518344 20.589844 17.277344 z M 8.8496094 20.144531 C 9.7309004 20.408475 10.682331 20.619073 11.691406 20.763672 C 12.313288 21.552345 12.957085 22.261935 13.617188 22.884766 C 12.495042 23.654481 11.461272 24.070312 10.679688 24.070312 C 10.363687 24.070312 10.1 24.006953 9.875 23.876953 C 9.114 23.437953 8.7230781 22.112031 8.8300781 20.332031 C 8.8337424 20.271023 8.8447938 20.206253 8.8496094 20.144531 z M 21.150391 20.144531 C 21.155182 20.206253 21.166285 20.271023 21.169922 20.332031 C 21.276922 22.112031 20.886 23.436953 20.125 23.876953 C 19.9 24.006953 19.637312 24.070313 19.320312 24.070312 C 18.538728 24.070312 17.504958 23.654609 16.382812 22.884766 C 17.042964 22.261863 17.688542 21.552454 18.310547 20.763672 C 19.318921 20.619083 20.269653 20.408309 21.150391 20.144531 z M 14.1875 20.978516 C 14.457282 20.987578 14.725627 21 15 21 C 15.274373 21 15.542718 20.987578 15.8125 20.978516 C 15.540266 21.263964 15.27108 21.524765 15 21.771484 C 14.72892 21.524749 14.459734 21.263966 14.1875 20.978516 z"/></svg>

<svg xmlns="http://www.w3.org/2000/svg" width="50" height="50" viewBox="0 0 30 30"><path d="M10.68 4.182c-.611 0-1.178.136-1.68.425-1.569.906-2.166 3.114-1.85 5.862C4.613 11.569 3 13.189 3 15c0 1.811 1.613 3.431 4.15 4.531-.316 2.748.281 4.956 1.85 5.862.501.289 1.068.425 1.68.425 1.302 0 2.808-.653 4.32-1.775 1.512 1.122 3.02 1.775 4.322 1.775.611 0 1.178-.136 1.68-.425 1.569-.906 2.166-3.114 1.85-5.862C25.388 18.431 27 16.811 27 15c0-1.811-1.613-3.431-4.15-4.531.316-2.748-.281-4.956-1.85-5.862-.501-.29-1.068-.425-1.68-.425-1.302 0-2.808.653-4.32 1.775-1.512-1.122-3.018-1.775-4.32-1.775zm0 1.75c.781 0 1.815.415 2.937 1.185-.66.623-1.306 1.33-1.928 2.12-1.008.144-1.959.355-2.84.618-.004-.06-.015-.125-.019-.185-.107-1.78.284-3.107 1.045-3.547.225-.13.488-.191.805-.191zm8.64 0c.316 0 .58.061.805.191.761.439 1.152 1.767 1.045 3.547-.004.06-.015.124-.02.185a19.621 19.621 0 0 0-2.841-.619 19.588 19.588 0 0 0-1.926-2.119c1.122-.77 2.156-1.185 2.937-1.185zM15 8.229c.271.246.54.507.813.792C15.543 9.012 15.274 9 15 9c-.274 0-.541.012-.81.021.271-.285.54-.546.81-.792zm0 2.521c.829 0 1.614.046 2.36.127.454.618.902 1.27 1.322 1.998.402.697.758 1.41 1.072 2.125-.314.715-.67 1.43-1.072 2.127a21.394 21.394 0 0 1-1.319 1.99c-.771.085-1.563.133-2.363.133-.829 0-1.614-.046-2.36-.127a21.404 21.404 0 0 1-1.322-1.996A21.762 21.762 0 0 1 10.246 15c.314-.715.67-1.428 1.072-2.125.42-.725.866-1.376 1.319-1.992A21.758 21.758 0 0 1 15 10.75zm4.746.541c.397.096.778.2 1.137.314-.081.368-.18.742-.293 1.12-.129-.242-.254-.484-.393-.725-.143-.248-.302-.47-.45-.709zm-9.494.002c-.149.238-.307.46-.45.707-.138.24-.263.483-.392.725a16.291 16.291 0 0 1-.295-1.121c.365-.116.746-.218 1.137-.311zm-2.783.953c.21.89.503 1.812.879 2.752a19.618 19.618 0 0 0-.877 2.746C5.729 16.904 4.75 15.856 4.75 15c0-.879.952-1.88 2.547-2.678.054-.027.116-.05.172-.076zm15.06.01c1.742.84 2.721 1.888 2.721 2.744 0 .879-.952 1.88-2.547 2.678-.054.027-.116.05-.172.076-.21-.89-.5-1.813-.877-2.754.375-.937.665-1.857.875-2.744zM15 13a2 2 0 1 0-.001 3.999A2 2 0 0 0 15 13zm-5.59 4.275c.129.242.256.484.395.725.143.248.3.47.449.709-.397-.096-.778-.2-1.137-.314.081-.368.18-.741.293-1.12zm11.18.002c.112.379.214.752.295 1.12-.365.115-.746.217-1.137.31.149-.238.307-.46.45-.707.138-.24.263-.482.392-.723zM8.85 20.145c.88.263 1.832.474 2.841.619a19.587 19.587 0 0 0 1.926 2.12c-1.122.77-2.156 1.186-2.937 1.186a1.57 1.57 0 0 1-.805-.193c-.761-.439-1.152-1.765-1.045-3.545.004-.061.015-.126.02-.187zm12.3 0c.005.061.016.126.02.187.107 1.78-.284 3.105-1.045 3.545-.225.13-.488.193-.805.193-.781 0-1.815-.415-2.937-1.185a19.602 19.602 0 0 0 1.928-2.121 19.619 19.619 0 0 0 2.84-.62zm-6.962.834c.27.009.538.021.812.021s.543-.012.813-.021c-.273.285-.542.546-.813.792-.271-.246-.54-.507-.813-.792z"/></svg>
